Adwaita++-Dark/actions/16/kstars_solarsystem.svg

<svg height="16" viewBox="0 0 16 16" width="16" xmlns="http://www.w3.org/2000/svg">
  <path d="m8-.05078125v.05078125a8 8 0 0 0 -8 8 8 8 0 0 0 1.3847656 4.498047 1.5 1.5 0 0 0 -.1835937.251953 1.5 1.5 0 0 0 .5488281 2 1.5 1.5 0 0 0 1.7578125-.199219 8 8 0 0 0 4.4921875 1.398438 8 8 0 0 0 8-8.0000002 8 8 0 0 0 -8-8.00000005zm0 1.05078125a7 7 0 0 1 7 7 7 7 0 0 1 -7 7 7 7 0 0 1 -4.0175781-1.271484 1.5 1.5 0 0 0 -.7324219-1.5 1.5 1.5 0 0 0 -.9726562-.199219 7 7 0 0 1 -1.2773438-4.0000001 7 7 0 0 1 7-7zm0 2a5 5 0 0 0 -5 5 5 5 0 0 0 5 5 5 5 0 0 0 3.072266-1.0625 1.5 1.5 0 0 0 1.726562-.6875 1.5 1.5 0 0 0 -.078125-1.6191406 5 5 0 0 0 .279297-1.6308594 5 5 0 0 0 -5-5zm0 1a4 4 0 0 1 4 4 4 4 0 0 1 -.142578 1.0429688 1.5 1.5 0 0 0 -1.65625.7070312 1.5 1.5 0 0 0 .037109 1.560547 4 4 0 0 1 -2.238281.699219 4 4 0 0 1 -4-4.0000004 4 4 0 0 1 4-4zm0 2a2 2 0 0 0 -2 2 2 2 0 0 0 2 2 2 2 0 0 0 2-2 2 2 0 0 0 -2-2z" fill="#e6ddff"/>
</svg>

<svg xmlns="http://www.w3.org/2000/svg" width="16" height="16" viewBox="0 0 16 16">
 <defs>
  <style id="current-color-scheme" type="text/css">
   .ColorScheme-Text { color:#E6DDFF; } .ColorScheme-Highlight { color:#4285f4; }
  </style>
 </defs>
 <path style="fill:currentColor" class="ColorScheme-Text" d="M 8 -0.05078125 L 8 0 A 8 8 0 0 0 0 8 A 8 8 0 0 0 1.3847656 12.498047 A 1.5 1.5 0 0 0 1.2011719 12.75 A 1.5 1.5 0 0 0 1.75 14.75 A 1.5 1.5 0 0 0 3.5078125 14.550781 A 8 8 0 0 0 8 15.949219 A 8 8 0 0 0 16 7.9492188 A 8 8 0 0 0 8 -0.05078125 z M 8 1 A 7 7 0 0 1 15 8 A 7 7 0 0 1 8 15 A 7 7 0 0 1 3.9824219 13.728516 A 1.5 1.5 0 0 0 3.25 12.228516 A 1.5 1.5 0 0 0 2.2773438 12.029297 A 7 7 0 0 1 1 8.0292969 A 7 7 0 0 1 8 1.0292969 L 8 1 z M 8 3 A 5 5 0 0 0 3 8 A 5 5 0 0 0 8 13 A 5 5 0 0 0 11.072266 11.9375 A 1.5 1.5 0 0 0 12.798828 11.25 A 1.5 1.5 0 0 0 12.720703 9.6308594 A 5 5 0 0 0 13 8 A 5 5 0 0 0 8 3 z M 8 4 A 4 4 0 0 1 12 8 A 4 4 0 0 1 11.857422 9.0429688 A 1.5 1.5 0 0 0 10.201172 9.75 A 1.5 1.5 0 0 0 10.238281 11.310547 A 4 4 0 0 1 8 12.009766 A 4 4 0 0 1 4 8.0097656 A 4 4 0 0 1 8 4.0097656 L 8 4 z M 8 6 A 2 2 0 0 0 6 8 A 2 2 0 0 0 8 10 A 2 2 0 0 0 10 8 A 2 2 0 0 0 8 6 z"/>
</svg>
